X:245
T:Woods Hornpipe
O:No 245 William Clarke of Feltwell
M:4/4
L:1/8
K:C
(3GAB|c2c2c2ef|gegc' gedc|agfe fedc|Bcded2|(3GAB|c2c2c2ef|gegc' gedc|agfe fedc|G2B2c2::ef|gegc' gegc'|afac' afac'|agfe fedc|Bcded2ef|gegc' gegc'|afac' afac'|c'bag fedc|G2B2c2:|

